X: 11513
T: Eddie Kelly's
R: reel
M: 4/4
K: Aminor
|:edBG ABAG|EAAG EAAB|cBcd e3d|eac'b a3g|
edBG E3^F|G3A Bddg|ac'ba gdeg|fdcB cA A2:|
|:cAAG AAGA|cAAA BGBd|cAAG AAGA|Bddc BGGB|
cAAG AAGA|Bdde dBGB|cAGE F2de|fdcB cA A2:|

